; generated by Slic3r 1.3.0-dev on 2018-05-04 at 14:24:24

; external perimeters extrusion width = 0.55mm (4.37mm^3/s)
; perimeters extrusion width = 0.70mm (11.44mm^3/s)
; infill extrusion width = 0.62mm (13.45mm^3/s)
; solid infill extrusion width = 0.70mm (3.81mm^3/s)
; top infill extrusion width = 0.70mm (2.86mm^3/s)

M107
M104 S200 ; set temperature
G28 ; home all axes
G1 Z5 F5000 ; lift nozzle

; Filament gcode

M109 S200 ; set temperature and wait for it to be reached
G21 ; set units to millimeters
G90 ; use absolute coordinates
M82 ; use absolute distances for extrusion
G92 E0
G1 Z0.350 F7800.000
G1 E-2.00000 F2400.00000
G92 E0
G1 X70.589 Y88.518 F7800.000
G1 E2.00000 F2400.00000
G1 F1800
G1 X71.205 Y88.070 M45
 M46
G1 X71.710 Y87.762 M45
 M46
G1 X72.301 Y87.459 M45
 M46
G1 X72.839 Y87.233 M45
 M46
G1 X73.423 Y87.035 M45
 M46
G1 X73.977 Y86.890 M45
 M46
G1 X74.636 Y86.769 M45
 M46
G1 X75.333 Y86.697 M45
 M46
G1 X98.756 Y85.261 M45
 M46
G1 X99.575 Y85.227 M45
 M46
G1 X100.421 Y85.225 M45
 M46
G1 X101.233 Y85.254 M45
 M46
G1 X102.039 Y85.313 M45
 M46
G1 X102.858 Y85.405 M45
 M46
G1 X103.673 Y85.528 M45
 M46
G1 X104.433 Y85.671 M45
 M46
G1 X105.236 Y85.854 M45
 M46
G1 X105.982 Y86.052 M45
 M46
G1 X106.737 Y86.282 M45
 M46
G1 X107.544 Y86.563 M45
 M46
G1 X108.328 Y86.869 M45
 M46
G1 X109.052 Y87.184 M45
 M46
G1 X109.820 Y87.555 M45
 M46
G1 X110.513 Y87.922 M45
 M46
G1 X111.230 Y88.337 M45
 M46
G1 X111.821 Y88.707 M45
 M46
G1 X112.465 Y89.141 M45
 M46
G1 X113.133 Y89.629 M45
 M46
G1 X113.699 Y90.073 M45
 M46
G1 X114.321 Y90.600 M45
 M46
G1 X114.907 Y91.135 M45
 M46
G1 X115.454 Y91.671 M45
 M46
G1 X116.078 Y92.332 M45
 M46
G1 X116.586 Y92.914 M45
 M46
G1 X117.106 Y93.555 M45
 M46
G1 X117.601 Y94.216 M45
 M46
G1 X118.108 Y94.952 M45
 M46
G1 X118.515 Y95.595 M45
 M46
G1 X118.836 Y96.144 M45
 M46
G1 X119.073 Y96.608 M45
 M46
G1 X119.316 Y97.179 M45
 M46
G1 X119.447 Y97.552 M45
 M46
G1 X119.608 Y98.117 M45
 M46
G1 X119.732 Y98.725 M45
 M46
G1 X119.817 Y99.452 M45
 M46
G1 X119.836 Y99.963 M45
 M46
G1 X119.810 Y100.635 M45
 M46
G1 X119.744 Y101.204 M45
 M46
G1 X119.638 Y101.757 M45
 M46
G1 X119.532 Y102.169 M45
 M46
G1 X119.241 Y103.011 M45
 M46
G1 X119.070 Y103.399 M45
 M46
G1 X118.846 Y103.838 M45
 M46
G1 X118.142 Y104.995 M45
 M46
G1 X117.425 Y106.026 M45
 M46
G1 X116.578 Y107.096 M45
 M46
G1 X115.753 Y108.019 M45
 M46
G1 X114.897 Y108.875 M45
 M46
G1 X113.943 Y109.725 M45
 M46
G1 X112.883 Y110.558 M45
 M46
G1 X111.850 Y111.275 M45
 M46
G1 X110.846 Y111.889 M45
 M46
G1 X109.783 Y112.463 M45
 M46
G1 X108.552 Y113.036 M45
 M46
G1 X107.443 Y113.475 M45
 M46
G1 X106.232 Y113.875 M45
 M46
G1 X105.080 Y114.184 M45
 M46
G1 X103.696 Y114.469 M45
 M46
G1 X102.957 Y114.582 M45
 M46
G1 X102.131 Y114.678 M45
 M46
G1 X101.360 Y114.739 M45
 M46
G1 X100.621 Y114.771 M45
 M46
G1 X99.211 Y114.762 M45
 M46
G1 X75.332 Y113.303 M45
 M46
G1 X74.483 Y113.208 M45
 M46
G1 X73.982 Y113.111 M45
 M46
G1 X73.530 Y112.996 M45
 M46
G1 X72.934 Y112.803 M45
 M46
G1 X72.320 Y112.550 M45
 M46
G1 X71.811 Y112.295 M45
 M46
G1 X71.301 Y111.993 M45
 M46
G1 X70.757 Y111.613 M45
 M46
G1 X70.319 Y111.255 M45
 M46
G1 X69.843 Y110.804 M45
 M46
G1 X69.402 Y110.313 M45
 M46
G1 X68.947 Y109.713 M45
 M46
G1 X68.676 Y109.290 M45
 M46
G1 X68.412 Y108.816 M45
 M46
G1 X68.157 Y108.275 M45
 M46
G1 X67.963 Y107.778 M45
 M46
G1 X67.833 Y107.382 M45
 M46
G1 X67.694 Y106.861 M45
 M46
G1 X67.582 Y106.293 M45
 M46
G1 X67.512 Y105.762 M45
 M46
G1 X67.467 Y104.887 M45
 M46
G1 X67.467 Y95.105 M45
 M46
G1 X67.493 Y94.441 M45
 M46
G1 X67.583 Y93.699 M45
 M46
G1 X67.684 Y93.182 M45
 M46
G1 X67.798 Y92.738 M45
 M46
G1 X67.963 Y92.222 M45
 M46
G1 X68.241 Y91.536 M45
 M46
G1 X68.623 Y90.797 M45
 M46
G1 X68.988 Y90.229 M45
 M46
G1 X69.468 Y89.608 M45
 M46
G1 X70.063 Y88.978 M45
 M46
G1 X70.531 Y88.566 M45
 M46
G1 E4.27661 F2400.00000
G92 E0
G1 X90.994 Y103.036 F7800.000
G1 E2.00000 F2400.00000
G1 F1800
G1 X90.864 Y102.822 M45
 M46
G1 X90.788 Y102.566 M45
 M46
G1 X90.762 Y102.271 M45
 M46
G1 X90.780 Y101.663 M45
 M46
G1 X90.784 Y98.055 M45
 M46
G1 X90.740 Y97.410 M45
 M46
G1 X90.832 Y97.077 M45
 M46
G1 X91.073 Y96.843 M45
 M46
G1 X91.398 Y96.718 M45
 M46
G1 X91.722 Y96.684 M45
 M46
G1 X93.347 Y96.721 M45
 M46
G1 X93.816 Y96.782 M45
 M46
G1 X94.308 Y96.910 M45
 M46
G1 X94.712 Y97.107 M45
 M46
G1 X95.076 Y97.398 M45
 M46
G1 X95.363 Y97.733 M45
 M46
G1 X95.623 Y98.177 M45
 M46
G1 X95.774 Y98.559 M45
 M46
G1 X95.853 Y98.843 M45
 M46
G1 X95.950 Y99.460 M45
 M46
G1 X95.971 Y99.980 M45
 M46
G1 X95.957 Y100.347 M45
 M46
G1 X95.810 Y101.360 M45
 M46
G1 X96.216 Y101.130 M45
 M46
G1 X96.448 Y101.052 M45
 M46
G1 X96.729 Y101.014 M45
 M46
G1 X97.029 Y101.038 M45
 M46
G1 X97.265 Y101.107 M45
 M46
G1 X97.478 Y101.215 M45
 M46
G1 X97.668 Y101.357 M45
 M46
G1 X97.833 Y101.532 M45
 M46
G1 X97.962 Y101.733 M45
 M46
G1 X98.058 Y101.959 M45
 M46
G1 X98.165 Y102.549 M45
 M46
G1 X97.907 Y103.093 M45
 M46
G1 X97.755 Y103.288 M45
 M46
G1 X97.571 Y103.453 M45
 M46
G1 X97.272 Y103.620 M45
 M46
G1 X97.034 Y103.690 M45
 M46
G1 X96.798 Y103.715 M45
 M46
G1 X96.560 Y103.699 M45
 M46
G1 X96.329 Y103.642 M45
 M46
G1 X96.102 Y103.542 M45
 M46
G1 X95.828 Y103.336 M45
 M46
G1 X95.667 Y103.149 M45
 M46
G1 X95.543 Y102.937 M45
 M46
G1 X95.438 Y102.610 M45
 M46
G1 X95.396 Y102.114 M45
 M46
G1 X95.111 Y102.452 M45
 M46
G1 X94.917 Y102.631 M45
 M46
G1 X94.714 Y102.785 M45
 M46
G1 X94.393 Y102.965 M45
 M46
G1 X93.943 Y103.117 M45
 M46
G1 X93.386 Y103.207 M45
 M46
G1 X92.853 Y103.234 M45
 M46
G1 X92.038 Y103.226 M45
 M46
G1 X91.589 Y103.268 M45
 M46
G1 X91.351 Y103.249 M45
 M46
G1 X91.175 Y103.183 M45
 M46
G1 X91.052 Y103.083 M45
 M46
G1 X90.748 Y103.082 F7800.000
G1 E0.84067 F2400.00000
G92 E0
G1 X86.354 Y101.393 F7800.000
G1 E2.00000 F2400.00000
G1 F1800
G1 X86.703 Y101.331 M45
 M46
G1 X86.986 Y101.364 M45
 M46
G1 X87.222 Y101.450 M45
 M46
G1 X87.659 Y101.764 M45
 M46
G1 X87.734 Y101.803 M45
 M46
G1 X87.826 Y101.816 M45
 M46
G1 X87.905 Y101.802 M45
 M46
G1 X88.064 Y101.726 M45
 M46
G1 X88.149 Y101.651 M45
 M46
G1 X88.215 Y101.555 M45
 M46
G1 X88.257 Y101.447 M45
 M46
G1 X88.274 Y101.276 M45
 M46
G1 X88.238 Y101.109 M45
 M46
G1 X88.134 Y100.915 M45
 M46
G1 X88.016 Y100.779 M45
 M46
G1 X87.871 Y100.664 M45
 M46
G1 X87.705 Y100.580 M45
 M46
G1 X87.590 Y100.543 M45
 M46
G1 X87.093 Y100.451 M45
 M46
G1 X86.853 Y100.360 M45
 M46
G1 X86.628 Y100.147 M45
 M46
G1 X86.540 Y99.894 M45
 M46
G1 X86.535 Y99.630 M45
 M46
G1 X86.600 Y99.368 M45
 M46
G1 X86.691 Y99.186 M45
 M46
G1 X86.868 Y98.980 M45
 M46
G1 X87.155 Y98.839 M45
 M46
G1 X87.619 Y98.761 M45
 M46
G1 X87.742 Y98.719 M45
 M46
G1 X87.837 Y98.658 M45
 M46
G1 X87.915 Y98.576 M45
 M46
G1 X87.962 Y98.492 M45
 M46
G1 X87.978 Y98.426 M45
 M46
G1 X87.967 Y98.307 M45
 M46
G1 X87.937 Y98.238 M45
 M46
G1 X87.874 Y98.160 M45
 M46
G1 X87.695 Y98.130 M45
 M46
G1 X87.507 Y98.178 M45
 M46
G1 X87.426 Y98.218 M45
 M46
G1 X87.019 Y98.482 M45
 M46
G1 X86.862 Y98.549 M45
 M46
G1 X86.604 Y98.577 M45
 M46
G1 X86.356 Y98.497 M45
 M46
G1 X86.123 Y98.313 M45
 M46
G1 X85.960 Y98.086 M45
 M46
G1 X85.863 Y97.824 M45
 M46
G1 X85.853 Y97.552 M45
 M46
G1 X85.969 Y97.256 M45
 M46
G1 X86.147 Y97.047 M45
 M46
G1 X86.378 Y96.872 M45
 M46
G1 X86.675 Y96.718 M45
 M46
G1 X87.004 Y96.607 M45
 M46
G1 X87.367 Y96.542 M45
 M46
G1 X87.648 Y96.522 M45
 M46
G1 X87.996 Y96.526 M45
 M46
G1 X88.291 Y96.558 M45
 M46
G1 X88.633 Y96.632 M45
 M46
G1 X88.857 Y96.711 M45
 M46
G1 X89.138 Y96.862 M45
 M46
G1 X89.315 Y97.000 M45
 M46
G1 X89.528 Y97.229 M45
 M46
G1 X89.692 Y97.498 M45
 M46
G1 X89.799 Y97.864 M45
 M46
G1 X89.819 Y98.186 M45
 M46
G1 X89.781 Y98.700 M45
 M46
G1 X89.684 Y99.059 M45
 M46
G1 X89.537 Y99.296 M45
 M46
G1 X89.344 Y99.472 M45
 M46
G1 X89.639 Y99.780 M45
 M46
G1 X89.806 Y100.094 M45
 M46
G1 X89.942 Y100.519 M45
 M46
G1 X90.032 Y100.897 M45
 M46
G1 X90.063 Y101.234 M45
 M46
G1 X90.015 Y101.669 M45
 M46
G1 X89.865 Y102.117 M45
 M46
G1 X89.683 Y102.448 M45
 M46
G1 X89.384 Y102.809 M45
 M46
G1 X89.021 Y103.088 M45
 M46
G1 X88.698 Y103.247 M45
 M46
G1 X88.259 Y103.366 M45
 M46
G1 X87.865 Y103.405 M45
 M46
G1 X87.436 Y103.399 M45
 M46
G1 X87.050 Y103.345 M45
 M46
G1 X86.727 Y103.255 M45
 M46
G1 X86.446 Y103.130 M45
 M46
G1 X86.210 Y102.962 M45
 M46
G1 X86.019 Y102.742 M45
 M46
G1 X85.883 Y102.431 M45
 M46
G1 X85.847 Y102.137 M45
 M46
G1 X85.917 Y101.797 M45
 M46
G1 X86.078 Y101.566 M45
 M46
G1 X86.291 Y101.433 M45
 M46
G1 X86.410 Y101.044 F7800.000
G1 E0.79998 F2400.00000
G92 E0
G1 X84.780 Y103.028 F7800.000
G1 E2.00000 F2400.00000
G1 F1800
G1 X84.950 Y103.416 M45
 M46
G1 X85.364 Y103.895 M45
 M46
G1 X85.825 Y104.221 M45
 M46
G1 X86.302 Y104.434 M45
 M46
G1 X86.795 Y104.572 M45
 M46
G1 X87.340 Y104.647 M45
 M46
G1 X87.917 Y104.656 M45
 M46
G1 X88.486 Y104.600 M45
 M46
G1 X89.142 Y104.421 M45
 M46
G1 X89.685 Y104.154 M45
 M46
G1 X90.046 Y103.876 M45
 M46
G1 X90.545 Y104.281 M45
 M46
G1 X91.074 Y104.480 M45
 M46
G1 X91.596 Y104.523 M45
 M46
G1 X92.091 Y104.477 M45
 M46
G1 X92.879 Y104.484 M45
 M46
G1 X93.518 Y104.451 M45
 M46
G1 X94.244 Y104.334 M45
 M46
G1 X94.859 Y104.127 M45
 M46
G1 X94.969 Y104.254 M45
 M46
G1 X95.465 Y104.626 M45
 M46
G1 X95.923 Y104.830 M45
 M46
G1 X96.367 Y104.939 M45
 M46
G1 X96.823 Y104.970 M45
 M46
G1 X97.280 Y104.920 M45
 M46
G1 X97.759 Y104.779 M45
 M46
G1 X98.236 Y104.513 M45
 M46
G1 X98.437 Y104.623 M45
 M46
G1 X99.368 Y104.714 M45
 M46
G1 X100.110 Y104.374 M45
 M46
G1 X100.282 Y104.503 M45
 M46
G1 X100.729 Y104.639 M45
 M46
G1 X100.676 Y104.897 M45
 M46
G1 X100.703 Y105.353 M45
 M46
G1 X100.805 Y105.773 M45
 M46
G1 X101.152 Y106.501 M45
 M46
G1 X100.709 Y106.537 M45
 M46
G1 X99.835 Y106.551 M45
 M46
G1 X99.208 Y106.527 M45
 M46
G1 X75.923 Y105.099 M45
 M46
G1 X75.706 Y105.062 M45
 M46
G1 X75.692 Y104.231 M45
 M46
G1 X76.232 Y104.444 M45
 M46
G1 X76.647 Y104.559 M45
 M46
G1 X77.056 Y104.628 M45
 M46
G1 X77.638 Y104.659 M45
 M46
G1 X78.202 Y104.622 M45
 M46
G1 X78.732 Y104.518 M45
 M46
G1 X79.230 Y104.341 M45
 M46
G1 X79.591 Y104.152 M45
 M46
G1 X80.015 Y103.849 M45
 M46
G1 X80.418 Y103.430 M45
 M46
G1 X80.649 Y103.051 M45
 M46
G1 X81.121 Y103.853 M45
 M46
G1 X81.798 Y104.346 M45
 M46
G1 X82.633 Y104.534 M45
 M46
G1 X83.426 Y104.427 M45
 M46
G1 X84.053 Y104.085 M45
 M46
G1 X84.463 Y103.621 M45
 M46
G1 X84.745 Y103.094 M45
 M46
G1 E1.75580 F2400.00000
G92 E0
G1 X84.835 Y100.707 F7800.000
G1 E2.00000 F2400.00000
G1 F1800
G1 X84.830 Y99.576 M45
 M46
G1 X85.283 Y99.529 M45
 M46
G1 X85.294 Y100.117 M45
 M46
G1 X85.427 Y100.499 M45
 M46
G1 X85.200 Y100.642 M45
 M46
G1 X85.097 Y100.789 M45
 M46
G1 X84.907 Y100.729 M45
 M46
G1 E0.09983 F2400.00000
G92 E0
G1 X80.694 Y100.932 F7800.000
G1 E2.00000 F2400.00000
G1 F1800
G1 X80.114 Y100.328 M45
 M46
G1 X79.295 Y99.957 M45
 M46
G1 X79.808 Y99.800 M45
 M46
G1 X80.163 Y99.529 M45
 M46
G1 X80.686 Y99.668 M45
 M46
G1 X80.693 Y100.857 M45
 M46
G1 X81.307 Y98.980 F7800.000
G1 F1800
G1 X81.324 Y101.907 M45
 M46
G1 X81.280 Y102.640 M45
 M46
G1 X81.375 Y103.053 M45
 M46
G1 X81.594 Y103.425 M45
 M46
G1 X82.061 Y103.765 M45
 M46
G1 X82.660 Y103.899 M45
 M46
G1 X83.228 Y103.823 M45
 M46
G1 X83.657 Y103.589 M45
 M46
G1 X83.947 Y103.262 M45
 M46
G1 X84.117 Y102.942 M45
 M46
G1 X84.218 Y102.441 M45
 M46
G1 X84.203 Y98.976 M45
 M46
G1 X84.519 Y98.981 M45
 M46
G1 X84.968 Y98.933 M45
 M46
G1 X85.381 Y98.804 M45
 M46
G1 X85.561 Y98.667 M45
 M46
G1 X86.038 Y99.041 M45
 M46
G1 X85.908 Y99.559 M45
 M46
G1 X85.917 Y100.005 M45
 M46
G1 X86.088 Y100.496 M45
 M46
G1 X86.296 Y100.693 M45
 M46
G1 X85.639 Y101.104 M45
 M46
G1 X85.331 Y101.544 M45
 M46
G1 X85.214 Y102.111 M45
 M46
G1 X85.274 Y102.598 M45
 M46
G1 X85.484 Y103.079 M45
 M46
G1 X85.787 Y103.429 M45
 M46
G1 X86.136 Y103.675 M45
 M46
G1 X86.514 Y103.844 M45
 M46
G1 X86.923 Y103.959 M45
 M46
G1 X87.388 Y104.023 M45
 M46
G1 X87.891 Y104.031 M45
 M46
G1 X88.373 Y103.983 M45
 M46
G1 X88.920 Y103.834 M45
 M46
G1 X89.353 Y103.621 M45
 M46
G1 X89.820 Y103.261 M45
 M46
G1 X90.154 Y102.859 M45
 M46
G1 X90.517 Y103.453 M45
 M46
G1 X90.860 Y103.732 M45
 M46
G1 X91.213 Y103.864 M45
 M46
G1 X91.592 Y103.896 M45
 M46
G1 X92.064 Y103.851 M45
 M46
G1 X92.866 Y103.859 M45
 M46
G1 X93.452 Y103.829 M45
 M46
G1 X94.094 Y103.726 M45
 M46
G1 X94.648 Y103.538 M45
 M46
G1 X95.042 Y103.317 M45
 M46
G1 X95.157 Y103.513 M45
 M46
G1 X95.398 Y103.795 M45
 M46
G1 X95.784 Y104.084 M45
 M46
G1 X96.126 Y104.236 M45
 M46
G1 X96.463 Y104.319 M45
 M46
G1 X96.810 Y104.342 M45
 M46
G1 X97.157 Y104.305 M45
 M46
G1 X97.515 Y104.199 M45
 M46
G1 X97.936 Y103.965 M45
 M46
G1 X98.164 Y103.760 M45
 M46
G1 X98.625 Y104.014 M45
 M46
G1 X99.261 Y104.076 M45
 M46
G1 X99.816 Y103.821 M45
 M46
G1 X100.074 Y103.566 M45
 M46
G1 X100.569 Y103.937 M45
 M46
G1 X101.021 Y104.074 M45
 M46
G1 X101.696 Y104.058 M45
 M46
G1 X101.396 Y104.496 M45
 M46
G1 X101.305 Y104.942 M45
 M46
G1 X101.323 Y105.260 M45
 M46
G1 X101.397 Y105.562 M45
 M46
G1 X101.587 Y105.961 M45
 M46
G1 X101.953 Y106.340 M45
 M46
G1 X102.308 Y106.518 M45
 M46
G1 X102.738 Y106.605 M45
 M46
G1 X102.738 Y106.911 M45
 M46
G1 X102.436 Y106.973 M45
 M46
G1 X101.598 Y107.092 M45
 M46
G1 X100.739 Y107.161 M45
 M46
G1 X99.828 Y107.176 M45
 M46
G1 X99.177 Y107.151 M45
 M46
G1 X75.851 Y105.721 M45
 M46
G1 X75.580 Y105.675 M45
 M46
G1 X75.341 Y105.548 M45
 M46
G1 X75.177 Y105.347 M45
 M46
G1 X75.101 Y105.154 M45
 M46
G1 X75.077 Y105.026 M45
 M46
G1 X75.068 Y102.993 M45
 M46
G1 X75.590 Y103.426 M45
 M46
G1 X76.106 Y103.723 M45
 M46
G1 X76.430 Y103.851 M45
 M46
G1 X76.782 Y103.948 M45
 M46
G1 X77.125 Y104.006 M45
 M46
G1 X77.635 Y104.033 M45
 M46
G1 X78.121 Y104.001 M45
 M46
G1 X78.567 Y103.914 M45
 M46
G1 X78.978 Y103.767 M45
 M46
G1 X79.263 Y103.618 M45
 M46
G1 X79.605 Y103.374 M45
 M46
G1 X79.920 Y103.046 M45
 M46
G1 X80.215 Y102.563 M45
 M46
G1 X80.386 Y101.968 M45
 M46
G1 X80.177 Y101.296 M45
 M46
G1 X79.747 Y100.847 M45
 M46
G1 X79.218 Y100.608 M45
 M46
G1 X78.756 Y100.555 M45
 M46
G1 X78.340 Y100.625 M45
 M46
G1 X78.042 Y100.760 M45
 M46
G1 X77.798 Y100.942 M45
 M46
G1 X77.679 Y101.081 M45
 M46
G1 X77.520 Y101.085 M45
 M46
G1 X77.430 Y101.066 M45
 M46
G1 X77.255 Y100.969 M45
 M46
G1 X77.144 Y100.778 M45
 M46
G1 X77.091 Y100.588 M45
 M46
G1 X77.054 Y100.328 M45
 M46
G1 X77.037 Y99.927 M45
 M46
G1 X77.057 Y99.565 M45
 M46
G1 X77.097 Y99.318 M45
 M46
G1 X77.148 Y99.144 M45
 M46
G1 X77.266 Y98.947 M45
 M46
G1 X77.361 Y98.884 M45
 M46
G1 X77.533 Y98.850 M45
 M46
G1 X78.204 Y99.230 M45
 M46
G1 X78.602 Y99.356 M45
 M46
G1 X79.048 Y99.380 M45
 M46
G1 X79.517 Y99.236 M45
 M46
G1 X79.883 Y98.957 M45
 M46
G1 X80.032 Y98.762 M45
 M46
G1 X80.215 Y98.896 M45
 M46
G1 X80.679 Y99.020 M45
 M46
G1 X81.009 Y99.016 M45
 M46
G1 X81.232 Y98.989 M45
 M46
G1 E2.84909 F2400.00000
G92 E0
G1 X85.090 Y98.241 F7800.000
G1 E2.00000 F2400.00000
G1 F1800
G1 X84.841 Y98.318 M45
 M46
G1 X84.491 Y98.355 M45
 M46
G1 X83.575 Y98.341 M45
 M46
G1 X83.593 Y102.380 M45
 M46
G1 X83.523 Y102.729 M45
 M46
G1 X83.430 Y102.903 M45
 M46
G1 X83.262 Y103.093 M45
 M46
G1 X83.030 Y103.219 M45
 M46
G1 X82.688 Y103.265 M45
 M46
G1 X82.324 Y103.184 M45
 M46
G1 X82.067 Y102.996 M45
 M46
G1 X81.963 Y102.819 M45
 M46
G1 X81.909 Y102.587 M45
 M46
G1 X81.949 Y101.924 M45
 M46
G1 X81.932 Y99.141 M45
 M46
G1 X81.967 Y98.586 M45
 M46
G1 X81.944 Y98.419 M45
 M46
G1 X81.804 Y98.338 M45
 M46
G1 X81.674 Y98.318 M45
 M46
G1 X80.968 Y98.392 M45
 M46
G1 X80.758 Y98.394 M45
 M46
G1 X80.489 Y98.322 M45
 M46
G1 X80.282 Y98.171 M45
 M46
G1 X80.138 Y97.955 M45
 M46
G1 X80.057 Y97.702 M45
 M46
G1 X80.048 Y97.428 M45
 M46
G1 X80.113 Y97.165 M45
 M46
G1 X80.251 Y96.933 M45
 M46
G1 X80.452 Y96.764 M45
 M46
G1 X80.659 Y96.685 M45
 M46
G1 X80.877 Y96.662 M45
 M46
G1 X81.489 Y96.706 M45
 M46
G1 X84.805 Y96.695 M45
 M46
G1 X84.986 Y96.725 M45
 M46
G1 X85.192 Y96.817 M45
 M46
G1 X85.335 Y96.946 M45
 M46
G1 X85.456 Y97.165 M45
 M46
G1 X85.511 Y97.503 M45
 M46
G1 X85.462 Y97.815 M45
 M46
G1 X85.334 Y98.054 M45
 M46
G1 X85.149 Y98.195 M45
 M46
G1 X85.080 Y98.501 F7800.000
G1 E0.68148 F2400.00000
G92 E0
G1 X98.797 Y98.192 F7800.000
G1 E2.00000 F2400.00000
G1 F1800
